src/browser-dataset-file.svg

<?xml version="1.0" encoding="UTF-8" standalone="no"?>
<svg
   xmlns:dc="http://purl.org/dc/elements/1.1/"
   xmlns:cc="http://creativecommons.org/ns#"
   xmlns:rdf="http://www.w3.org/1999/02/22-rdf-syntax-ns#"
   xmlns:svg="http://www.w3.org/2000/svg"
   xmlns="http://www.w3.org/2000/svg"
   xmlns:sodipodi="http://sodipodi.sourceforge.net/DTD/sodipodi-0.dtd"
   xmlns:inkscape="http://www.inkscape.org/namespaces/inkscape"
   width="128"
   height="128"
   viewBox="0 0 128 128"
   version="1.1"
   id="svg7"
   sodipodi:docname="browser-dataset-file.svg"
   inkscape:version="0.92.5 (2060ec1f9f, 2020-04-08)">
  <metadata
     id="metadata13">
    <rdf:RDF>
      <cc:Work
         rdf:about="">
        <dc:format>image/svg+xml</dc:format>
        <dc:type
           rdf:resource="http://purl.org/dc/dcmitype/StillImage" />
        <dc:title>icons/dataset</dc:title>
      </cc:Work>
    </rdf:RDF>
  </metadata>
  <defs
     id="defs11" />
  <sodipodi:namedview
     pagecolor="#ffffff"
     bordercolor="#666666"
     borderopacity="1"
     objecttolerance="10"
     gridtolerance="10"
     guidetolerance="10"
     inkscape:pageopacity="0"
     inkscape:pageshadow="2"
     inkscape:window-width="640"
     inkscape:window-height="480"
     id="namedview9"
     showgrid="false"
     inkscape:zoom="7.046875"
     inkscape:cx="10.073115"
     inkscape:cy="68.522718"
     inkscape:current-layer="svg7" />
  <title
     id="title2">icons/dataset</title>
  <g
     id="icons/dataset"
     style="fill:none;fill-rule:evenodd;stroke:none;stroke-width:1"
     transform="scale(4)">
    <path
       d="m 25,14.25 v 10.5 c 0,0.9625 -0.7875,1.75 -1.75,1.75 v 0 H 12.74125 C 11.77875,26.5 11,25.7125 11,24.75 v 0 l 10e-4,-1.25 h 9.249 c 0.9625,0 1.75,-0.7875 1.75,-1.75 v -10.5 z"
       id="Combined-Shape"
       inkscape:connector-curvature="0"
       style="fill:#000000" />
    <path
       d="m 15.75,5 h -7 C 7.7875,5 7.00875,5.7875 7.00875,6.75 L 7,20.75 c 0,0.9625 0.77875,1.75 1.74125,1.75 H 19.25 c 0.9625,0 1.75,-0.7875 1.75,-1.75 v -10.5 z m 1.75,14 h -7 v -1.75 h 7 z m 0,-3.5 h -7 v -1.75 h 7 z M 14.875,11.125 V 6.3125 l 4.8125,4.8125 z"
       id="Shape-Copy-5"
       inkscape:connector-curvature="0"
       style="fill:#000000" />
  </g>
</svg>

<?xml version="1.0" encoding="UTF-8"?>
<svg width="32px" height="32px" viewBox="0 0 32 32" version="1.1" xmlns="http://www.w3.org/2000/svg" xmlns:xlink="http://www.w3.org/1999/xlink">
    <title>icons/dataset</title>
    <g id="icons/dataset" stroke="none" stroke-width="1" fill="none" fill-rule="evenodd">
        <path d="M25,14.25 L25,24.75 C25,25.7125 24.2125,26.5 23.25,26.5 L23.25,26.5 L12.74125,26.5 C11.77875,26.5 11,25.7125 11,24.75 L11,24.75 L11.001,23.5 L20.25,23.5 C21.2125,23.5 22,22.7125 22,21.75 L22,11.25 L25,14.25 Z" id="Combined-Shape" fill="#000000"></path>
        <path d="M15.75,5 L8.75,5 C7.7875,5 7.00875,5.7875 7.00875,6.75 L7,20.75 C7,21.7125 7.77875,22.5 8.74125,22.5 L19.25,22.5 C20.2125,22.5 21,21.7125 21,20.75 L21,10.25 L15.75,5 L15.75,5 Z M17.5,19 L10.5,19 L10.5,17.25 L17.5,17.25 L17.5,19 L17.5,19 Z M17.5,15.5 L10.5,15.5 L10.5,13.75 L17.5,13.75 L17.5,15.5 L17.5,15.5 Z M14.875,11.125 L14.875,6.3125 L19.6875,11.125 L14.875,11.125 L14.875,11.125 Z" id="Shape-Copy-5" fill="#000000"></path>
    </g>
</svg>
